!!!SOCIAL_FUNCTION: songs connected with ceremonies
!!!SOCIAL_FUNCTION2: Buffalo dance
!!!PDT:	1929
!!!LING_GROUP: Caddoan
!!!LANG: Non-Tone
!!!REG: Oklahoma
!!!COM: Anon.
!!!OTL: The Buffalo and the Crow
!!!ODT: <1920//
!!!MPN: Tutukrawitsu [He overtook the enemy, Wicita Blain]
!!!MLC: Pawnee, Oklahoma, United States of America
!! Song was recorded either 1919 or 1920.
!!!AGN: monody
!!!AMT: irregular
!!!RWG: Transcribed pitches, durations, and meters are only approximate.
!! Drum Tempo:  MM84
!! Drum-rhythm: (8 8 8 8 8 8)
**kern	**silbe	**words	**words
*ICvox	*LPawnee	*LPawnee	*LEnglish
*Imale	*	*	*
*clefF4	*	*	*
*k[f#c#g#d#]	*	*	*
*M3/4	*M3/4	*M3/4	*M3/4
*MM84	*MM84	*MM84	*MM84
8e	Ti	Ti	He
=1	=1	=1	=1
8e	wa-	waka	said
8e	-ka	.	.
8e	ra	ra	yonder
8e	ra	ra	yonder
8e	ri	ri	it
8e	ke	ke	stands
*M2/4	*M2/4	*M2/4	*M2/4
=2	=2	=2	=2
2e	a	.	.
=3	=3	=3	=3
8.e	a	.	.
16e	ku-	kura	his
8e	-ra	.	.
16.e	ra	ra	have
32e	ta	ta	.
=4	=4	=4	=4
(8.e	wa-	wakura	sayings
16c#)	|	.	.
! augmentation dot added:	!	!	!
8.B	-ku-	.	.
16G#	-ru	.	.
*M7/8	*M7/8	*M7/8	*M7/8
=5	=5	=5	=5
(16B	ra	ra	have
16G#	|	.	.
16F#	|	.	.
16E)	|	.	.
8F#	ri	ri	it
16E	ke	ke	stands
16E	a	.	.
8.E	a	.	.
16c#	ti-	tiats	father
*M2/4	*M2/4	*M2/4	*M2/4
=6	=6	=6	=6
(16B	-ats	.	.
8E)	|	.	.
16G#	tu	tu	did
4E	ri	ri	it
*M5/8	*M5/8	*M5/8	*M5/8
=7	=7	=7	=7
8E	ru	ru	afraid
8E	a	a	.
8E	a	a	.
(16E	ra	ra	.
8.BB)	|	.	.
*M2/4	*M2/4	*M2/4	*M2/4
=8	=8	=8	=8
8E	ka-	kaka	crow
8E	-a-	.	.
(16E	-ka	.	.
8.BB)	|	.	.
*M3/4	*M3/4	*M3/4	*M3/4
=9	=9	=9	=9
8E	ra	ra	did
8E	wi	wi	flying
8E	kak-	kaksa	shouting
8E	-sa	.	.
8.r	.	.	.
16e	rat-	ratku	not real
*M2/4	*M2/4	*M2/4	*M2/4
=10	=10	=10	=10
8e	-ku	.	.
16e	a	.	.
16e	tu	tu	did
4e	ri	ri	it
*M5/8	*M5/8	*M5/8	*M5/8
=11	=11	=11	=11
8e	ru	ru	afraid
8e	a	.	.
(16e	ra	.	.
16c#)	|	.	.
(8B	a	.	.
8G#)	|	.	.
*M7/8	*M7/8	*M7/8	*M7/8
=12	=12	=12	=12
(16B	ra	.	.
16G#	|	.	.
16F#	|	.	.
16E)	|	.	.
8F#	ri	ri	it
8F#	ke	ke	stands
8E	a	.	.
8.E	a	.	.
16c#	ti-	tiats	father
*M2/4	*M2/4	*M2/4	*M2/4
=13	=13	=13	=13
(16B	-ats	.	.
8E)	|	.	.
16G#	tu	tu	did
4E	ri	ri	it
*M5/8	*M5/8	*M5/8	*M5/8
=14	=14	=14	=14
8E	ru	ru	afraid
8E	a	a	.
8E	a	a	.
(16E	ra	ra	.
8.BB)	|	.	.
*M2/4	*M2/4	*M2/4	*M2/4
=15	=15	=15	=15
8E	ka-	kaka	crow
8E	-a-	.	.
(16E	-ka	.	.
8.BB)	|	.	.
*M3/4	*M3/4	*M3/4	*M3/4
=16	=16	=16	=16
8E	ra	ra	did
8E	wi	wi	flying
8E	kak-	kaksa	shouting
8E	-sa	.	.
8r	.	.	.
==	==	==	==
*-	*-	*-	*-
!!!HAO: [no description]
!!!HTX: Listen, he said, yonder it stands,
!!!HTX: These are his sayings, yonder it stands,
!!!HTX: Father (buffalo) was startled,
!!!HTX: The crow was flying and shouting but he was not frightened,
!!!HTX: He was standing,
!!!HTX: Father was startled but not frightened.
!!!CNT: Pawnee
!!!TXO: Pawnee
!!!OCY: United States
!!!OCL: Frances Densmore
!!!YOR: Frances Densmore, "Pawnee Music"
!!!YOR: Bulletin 93, page 27, No. 3
!!!PPR: Smithsonian Institution, Bureau of American Ethnology
!!!PPR: Government Printing Office
!!!PDT: 1926
!!!PPP: Washington, DC, United States of America
!!!YEC: Electronic Copyright 2000 David Huron
!!!YER: September 2000
!!!YEN: United States of America
!!!ENC: David Huron
!!!RDT: August 31, 2000
!!!EEV: Release 1.0
!!!AIN: tom, vox
